svg/SJJB-OpenStreetMapIcons/poi/mine.svg

<?xml version="1.0" encoding="UTF-8" standalone="no"?>
<!-- Created with Inkscape (http://www.inkscape.org/) -->

<svg
   xmlns:dc="http://purl.org/dc/elements/1.1/"
   xmlns:cc="http://creativecommons.org/ns#"
   xmlns:rdf="http://www.w3.org/1999/02/22-rdf-syntax-ns#"
   xmlns:svg="http://www.w3.org/2000/svg"
   xmlns="http://www.w3.org/2000/svg"
   xmlns:sodipodi="http://sodipodi.sourceforge.net/DTD/sodipodi-0.dtd"
   xmlns:inkscape="http://www.inkscape.org/namespaces/inkscape"
   version="1.0"
   width="580"
   height="580"
   id="svg2"
   sodipodi:version="0.32"
   inkscape:version="0.47 r22583"
   sodipodi:docname="poi_mine.svg"
   inkscape:output_extension="org.inkscape.output.svg.inkscape">
  <metadata
     id="metadata10">
    <rdf:RDF>
      <cc:Work
         rdf:about="">
        <dc:format>image/svg+xml</dc:format>
        <dc:type
           rdf:resource="http://purl.org/dc/dcmitype/StillImage" />
        <cc:license
           rdf:resource="http://web.resource.org/cc/PublicDomain" />
        <dc:language>en</dc:language>
      </cc:Work>
    </rdf:RDF>
  </metadata>
  <sodipodi:namedview
     inkscape:window-height="1003"
     inkscape:window-width="1400"
     inkscape:pageshadow="2"
     inkscape:pageopacity="0.0"
     guidetolerance="10.0"
     gridtolerance="10.0"
     objecttolerance="10.0"
     borderopacity="1.0"
     bordercolor="#666666"
     pagecolor="#ffffff"
     id="base"
     showgrid="false"
     inkscape:zoom="0.35355339"
     inkscape:cx="857.75093"
     inkscape:cy="-34.972495"
     inkscape:window-x="0"
     inkscape:window-y="20"
     inkscape:current-layer="svg2"
     showguides="true"
     inkscape:guide-bbox="true"
     inkscape:window-maximized="0" />
  <defs
     id="defs4">
    <inkscape:perspective
       sodipodi:type="inkscape:persp3d"
       inkscape:vp_x="0 : 290 : 1"
       inkscape:vp_y="0 : 1000 : 0"
       inkscape:vp_z="580 : 290 : 1"
       inkscape:persp3d-origin="290 : 193.33333 : 1"
       id="perspective12" />
    <style
       type="text/css"
       id="style6">
   
    .fil0 {fill:#EF7900}
   
  </style>
    <inkscape:perspective
       id="perspective6807"
       inkscape:persp3d-origin="29.116032 : 19.410688 : 1"
       inkscape:vp_z="58.232063 : 29.116032 : 1"
       inkscape:vp_y="0 : 1000 : 0"
       inkscape:vp_x="0 : 29.116032 : 1"
       sodipodi:type="inkscape:persp3d" />
    <inkscape:perspective
       id="perspective6954"
       inkscape:persp3d-origin="290 : 193.33333 : 1"
       inkscape:vp_z="580 : 290 : 1"
       inkscape:vp_y="0 : 1000 : 0"
       inkscape:vp_x="0 : 290 : 1"
       sodipodi:type="inkscape:persp3d" />
    <inkscape:perspective
       id="perspective2541"
       inkscape:persp3d-origin="240 : 160 : 1"
       inkscape:vp_z="480 : 240 : 1"
       inkscape:vp_y="0 : 1000 : 0"
       inkscape:vp_x="0 : 240 : 1"
       sodipodi:type="inkscape:persp3d" />
    <inkscape:perspective
       id="perspective2750"
       inkscape:persp3d-origin="215 : 143.33333 : 1"
       inkscape:vp_z="430 : 215 : 1"
       inkscape:vp_y="0 : 1000 : 0"
       inkscape:vp_x="0 : 215 : 1"
       sodipodi:type="inkscape:persp3d" />
  </defs>
  <g
     id="g1327">
    <path
       d="M 66.275,1.768 C 24.94,1.768 1.704,23.139 1.704,66.804 L 1.704,516.927 C 1.704,557.771 22.598,579.156 63.896,579.156 L 515.92,579.156 C 557.227,579.156 578.149,558.84 578.149,516.927 L 578.149,66.804 C 578.149,24.203 557.227,1.768 514.627,1.768 C 514.624,1.768 66.133,1.625 66.275,1.768 z"
       style="fill:#111111;stroke:#eeeeee;stroke-width:3.40799999"
       id="path1329" />
  </g>
  <path
     style="fill:#ffffff;fill-opacity:1;stroke:#ffffff;stroke-width:20;stroke-linecap:round;stroke-linejoin:round;stroke-miterlimit:4;stroke-opacity:1;stroke-dasharray:none"
     d="m 383.0006,74.923386 -51.59375,45.218754 69.75,68.90625 c -26.00031,28.21406 -52.18068,56.30284 -78.40625,84.34375 5.98428,5.5813 11.95942,11.16203 17.9375,16.75 25.56765,-28.76064 51.2008,-57.48026 76.96875,-86.03125 5.37477,-3.82844 35.90895,25.48403 39.59375,31 l 84.59375,44.59375 c -4.65595,-3.3278 -42.77338,-96.00629 -48.78125,-101.25 -9.2805,-8.13542 -20.12557,-17.80484 -31.4375,-28.03125 l 17.90625,-17.4375 -13.78125,-11.65625 -17.375,17.0625 C 423.96414,116.02327 399.02975,92.259825 383.0006,74.923386 z M 247.8756,353.45464 c -4.23864,4.54392 -8.48517,9.07713 -12.71875,13.625 l -123.25,131.84375 23.78125,21.6875 119.96875,-134.84375 c 3.9575,-4.42956 7.89057,-8.87862 11.84375,-13.3125 -6.54263,-6.33242 -13.07618,-12.67399 -19.625,-19 z"
     id="path3604" />
  <path
     style="fill:#ffffff;fill-opacity:1;stroke:#ffffff;stroke-width:20;stroke-linecap:round;stroke-linejoin:round;stroke-miterlimit:4;stroke-opacity:1;stroke-dasharray:none"
     d="m 116.00938,151.66297 c -28.453063,28.86372 -47.564096,65.66715 -71.445755,98.36769 l 52.823261,38.52823 57.166044,-82.38903 c 6.86902,-3.61196 11.3378,5.27847 15.48932,9.24597 57.58348,57.0998 114.49748,115.01013 171.82143,172.42793 l 127.25143,127.98816 22.54488,-22.9731 -130.35955,-124.821 c -58.48609,-56.23357 -117.45692,-112.048 -175.62998,-168.54704 -4.04492,-4.07614 -13.01784,-8.37688 -9.53573,-15.31264 L 257.43368,125.47218 217.91846,73.383119 C 182.67994,98.090836 146.85375,121.44432 116.00938,151.66297 z"
     id="path3621"
     sodipodi:nodetypes="cccccccccccccc" />
</svg>

<svg xmlns="http://www.w3.org/2000/svg" viewBox="0 0 580 580"><path d="m66.28 1.768c-41.34 0-64.57 21.371-64.57 65.04v450.12c0 40.844 20.894 62.23 62.19 62.23h452.02c41.31 0 62.23-20.316 62.23-62.23v-450.12c0-42.601-20.922-65.04-63.52-65.04-.003 0-448.49-.143-448.35 0z" fill="#111" stroke="#eee" stroke-width="3.408"/><g fill="#fff" stroke="#fff" stroke-linejoin="round" stroke-linecap="round" stroke-width="20"><path d="m383 74.923l-51.594 45.22 69.75 68.906c-26 28.21-52.18 56.3-78.41 84.34 5.984 5.581 11.959 11.162 17.938 16.75 25.568-28.761 51.2-57.48 76.969-86.03 5.375-3.828 35.909 25.484 39.594 31l84.59 44.594c-4.656-3.328-42.773-96.01-48.781-101.25-9.281-8.135-20.13-17.805-31.438-28.03l17.906-17.438-13.781-11.656-17.375 17.06c-24.411-22.369-49.35-46.13-65.38-63.47zm-135.13 278.53c-4.239 4.544-8.485 9.08-12.719 13.625l-123.25 131.84 23.781 21.687 119.97-134.84c3.958-4.43 7.891-8.879 11.844-13.313-6.543-6.332-13.08-12.674-19.625-19z"/><path d="m116.01 151.66c-28.453 28.864-47.564 65.67-71.45 98.37l52.823 38.528 57.17-82.39c6.869-3.612 11.338 5.278 15.489 9.246 57.58 57.1 114.5 115.01 171.82 172.43l127.25 127.99 22.545-22.973-130.36-124.82c-58.49-56.23-117.46-112.05-175.63-168.55-4.045-4.076-13.02-8.377-9.536-15.313l81.3-58.706-39.515-52.09c-35.24 24.708-71.06 48.06-101.91 78.28z"/></g></svg>
